!!!!SEGMENT: pl-sa--l-1636--065_anonim--keyboard-piece.krn
!!!cenid: 17xx:772
!!!COM: Anonim
!!!COM-rismid: pe30004985
!!!CDT:
!!!CNT:
!!!OTL: [Keyboard piece]
!!!PDT:
!!!AGN: Secular
!!!SMS-siglum: PL-SA
!!!SMS-shelfmark: L 1636
!!!SMS-shelfwork: 065 W
!!!SMS-variant:
!!!SMS-altvar:
!!!NIFC-rismid: 1001076868
!!!URL-scan: http://repozytorium.nifc.pl/skany/pl-sa-nut--l1636
!!!ONB-nifc: 19r, skan 0022, s. 1-4
!!!AIN: 1 empty
!!!key:
**kern	**kern
*part1	*part1
*staff2	*staff1
*Iempty	*Iempty
*I"	*I"
*clefF4	*clefC1
*k[b-]	*k[b-]
*B-:	*B-:
*M2/2	*M2/2
*met(c|)	*met(c|)
=1	=1
*all\right	*all\right
*	*^
*	*	*2\right
8GG/L	2b-/	2g\
8AA/	.	.
8BB-/	.	.
8C/J	.	.
8D\L	2a/	2f\
8E\	.	.
8F\	.	.
8D\J	.	.
*	*v	*v
=2	=2
*^	*
*	*2\right	*
2G/	2E-X\	8g\L
.	.	8a\
.	.	8b-\
.	.	8cc\J
4A/	2D\	8dd\L
.	.	8ee-X\
4B-/	.	8ff\
.	.	8dd\J
=3	=3	=3
*	*	*^
4B-/	2C\	2ee-X/	2cc\
4A/	.	.	.
2B-/	2BB-\	8dd\L	2ryy
.	.	8ee-\	.
.	.	8ff\	.
.	.	8dd\J	.
*v	*v	*	*
=4	=4	=4
8C/L	2ee-X/	2cc\
8D/J	.	.
8E-X\L	.	.
8F\J	.	.
8G\L	2dd/	2b-\
8A\	.	.
8B-\	.	.
8E-X\J	.	.
=5	=5	=5
4F\	4cc/	4a\
4D\	4dd/	4b-\
4E-X\	2cc/	4b-\
4F\	.	4a\
=6	=6	=6
*^	*	*
2F/	2D 2BB-\	8b-\L	2ryy
.	.	16dd\L	.
.	.	16cc\JJ	.
.	.	16b-\LL	.
.	.	16a\	.
.	.	16g\	.
.	.	16f\JJ	.
4C/	2ryy	4g/	4e\
4AA/	.	4a/	4f\
*v	*v	*	*
!!LO:LB:g=original
=7	=7	=7
4BB-/	2g/	4f\
4C/	.	4e\
2F 2C 2FF/	8f/L	2ryy
.	16a/L	.
.	16g/JJ	.
.	16f/LL	.
.	16e/	.
.	16d/	.
.	16c/JJ	.
=8	=8	=8
4GG/	4d/	4Bn\
4EE/	4e/	4c\
4FF/	2d/	4c\
4GG/	.	4Bn\
=9	=9	=9
!	!LO:TX:a:t=P:problem=mixed beam	!
2C 2CC/	8c/L	2ryy
.	16ee-X\L	.
.	16dd\JJ	.
.	16cc\LL	.
.	16b-\	.
.	16a\	.
.	16g\JJ	.
4D/	4a/	4f#X\
4BB-/	4b-/	4g\
=10	=10	=10
4C/	2a/	4g\
4D/	.	4f#X\
!	!LO:TX:a:t=P:problem=mixed beam	!
2G 2D 2FF/	8g/L	2ryy
.	8a\	.
.	8b-\	.
.	8cc\J	.
=11	=11	=11
2D 2FF/	8dd\L	2ryy
.	8ee\	.
.	8ff\	.
.	8dd\J	.
4AA/	4ee/	4cc#X\
4FF/	4ff/	4dd\
!!LO:LB:g=original
=12	=12	=12
4GG/	2ee/	4dd\
4AA/	.	4cc#X\
2D 2DD/	2ryy	8dd\L
.	.	8a\
.	.	8dd\
.	.	8cc#\J
=13	=13	=13
*^	*	*
8G/L	2GG\	1ryy	8bn\L
8D/	.	.	8a\
8G/	.	.	[>16b\L
.	.	.	16b\J]
8F/J	.	.	8a\J
2E/	2C\	.	8cc\L
.	.	.	8g\
.	.	.	8cc\
.	.	.	8b\J
*	*	*v	*v
=14	=14	=14
8F/L	2FF/	8a\L
8C/	.	8g\
8F/	.	8a\
8E/J	.	8g\J
4D/	4BB-\	8f/L
.	.	16g/L
.	.	16a/JJ
!	!	!LO:TX:a:t=P:problem=♭ above
4G/	4GG/	8b-X\L
.	.	16a\L
.	.	16b-\JJ
=15	=15	=15
4E/	4C\	8g\L
.	.	16a\L
.	.	16b-\JJ
4A/	4AA/	8cc\L
.	.	16b-\L
.	.	16cc\JJ
4F/	4D\	8a\L
.	.	16b-\L
.	.	16cc\JJ
4B-/	4BB-\	8dd\L
.	.	16cc\L
.	.	16dd\JJ
!!LO:LB:g=original
=16	=16	=16
*	*	*^
2G/	2E\	(4.b-T\	2ryy
.	.	8g\)	.
2G/	2C\	2cc/	8e\L
!	!	!	!LO:TX:a:t=P:problem=# above
.	.	.	8f#X\
.	.	.	8g\
.	.	.	8a\J
=17	=17	=17	=17
1D	1DD	2cc/	4f#X\
.	.	.	8e\L
.	.	.	8f#\J
.	.	2b-/	2g\
=18	=18	=18	=18
1D	1DD	1a	2g\
.	.	.	2f#X\
*v	*v	*	*
*	*v	*v
=19	=19
!LO:TX:a:t=P:problem=ostatni takt bardzo ozdobny	!LO:TX:a:t=P:problem=ostatni takt bardzo ozdobny
0GG 0D 0G;	0g;
==	==
*-	*-
!!!system-decoration: s1,s2
!!!RDF**kern: > = above
!!!ENC: Marta Lawrence
!!!END: 2020-12-08
!!!ENC: Tomasz Grochalski
!!!END: 2020-06-12
